X:1
T:Hark! There Comes a Whisper
T:William Howard Doane
T:Hark! There Comes a Whisper
T:Public Domain
T:Public Domain
C:William Howard Doane
Z:Public Domain
%%score ( 1 2 ) 3
L:1/8
M:4/8
K:F
V:1 treble 
V:2 treble 
V:3 bass 
V:1
 [CF]>[CF]F[_EF] | [DF]2 [CF]2 | [EG]>[EG][FG][FG] | [EG]4 | [FA]>[GA][FA][FA] | [EA]2 [FA]2 | %6
w: 1.~Hark! there comes a|per Steal-|ing on thine ear:|’Tis|the Sav- ior call-|ing, Soft,|
w: 2.~With that voice so|tle, Dost|thou hear Him say?|“Tell|Me all thy sor-|rows; Come,|
w: 3.~Wouldst thou find a|uge For|thy soul op- pressed?|Je-|sus kind- ly an-|swers, “I|
w: 4.~At the cross of|sus, Let|thy bur- den fall;|While|He gent- ly whis-|pers, “I’ll|
 [FG]2 [FA][GA] | [EG]3 z ||"^Refrain" [Fc]>[Fc][FA][CF] | [EG]4 | [Fc]>[Fc][FA][CF] | [EG]4 | %12
w: soft and clear.||||||
w: come a- way!”|“Give|thy heart to Me,|Once|I died for thee”;|Hark!|
w: am thy Rest.”||||||
w: bear it all.”||||||
 .[FA] z .[FB] z/ [FB]/ | [Fc][Fc] [Fd]2 | [CF]2 [EA]<[EG] | F4 |] %16
w: ||||
w: Hark! thy Sav-|ior calls: Come,|sin- ner, come!||
w: ||||
w: ||||
V:2
 x2 F x | x4 | x4 | x4 | x4 | x4 | x4 | x4 || x4 | x4 | x4 | x4 | x4 | x4 | x4 | F4 |] %16
w: whis-||||||||||||||||
w: gen-||||||||||||||||
w: ref-||||||||||||||||
w: Je-||||||||||||||||
V:3
 [F,A,]>[_E,A,][D,B,][C,A,] | [B,,B,]2 [F,,A,]2 | [C,C]>[C,C][=B,,D][G,,=B,] | [C,C]4 | %4
w: ~ ~ ~ ~|~ ~|~ ~ ~ ~|~|
 [F,C]>[E,^C][D,D][D,D] | [A,,^C]2 [D,D]2 | [G,=B,]2 [G,B,][G,B,] | [C,C]3 z || %8
w: ~ ~ ~ ~|~ ~|~ ~ ~|~|
 [A,C]>[A,C][F,C][F,A,] | [C,C][C,C] [C,C]2 | [A,C]>[A,C][F,C][F,A,] | [C,C][C,C] [C,C]2 | %12
w: ~ ~ ~ ~|~ to Me,|~ ~ ~ ~|~ for thee;|
 .[F,C] z .[D,B,] z/ [B,,D]/ | [A,,C][A,,C] [B,,B,]2 | [C,A,]2 [C,C]<[C,B,] | [F,A,]4 |] %16
w: ||||

